svg/white/aion.svg

<svg xmlns="http://www.w3.org/2000/svg" width="32" height="32" viewBox="0 0 32 32">
  <g fill="#FFF">
    <path d="M16,32 C7.163444,32 0,24.836556 0,16 C0,7.163444 7.163444,0 16,0 C24.836556,0 32,7.163444 32,16 C32,24.836556 24.836556,32 16,32 Z M15.9712739,23.1501392 C19.9281911,23.1501392 23.1473376,19.9513671 23.1473376,16.0197722 C23.1473376,12.088038 19.9281911,8.88926582 15.9712739,8.88926582 C12.0144968,8.88926582 8.79521019,12.0878987 8.79521019,16.0197722 C8.79521019,19.9513671 12.0144968,23.1501392 15.9712739,23.1501392 Z M15.9712739,10.2861266 C19.1530064,10.2861266 21.7415796,12.8581772 21.7415796,16.0196329 C21.7415796,19.1812278 19.1530064,21.7531392 15.9712739,21.7531392 C12.7895414,21.7531392 10.2009682,19.1813671 10.2009682,16.0196329 C10.2009682,12.8581772 12.7895414,10.2861266 15.9712739,10.2861266 Z M20.9959618,7.87113924 L21.7321911,6.68063291 C20.0027389,5.62518987 18.0104076,5.06739241 15.9712739,5.06739241 C14.0983312,5.06739241 12.2482293,5.54275949 10.6212102,6.44225316 L11.3046115,7.66297468 C12.7232611,6.87905063 14.336828,6.46453165 15.9712739,6.46453165 C17.7508917,6.46453165 19.4883312,6.95089873 20.9959618,7.87113924 Z M23.0908662,24.3806076 C25.5708408,22.2931139 26.9931338,19.2459747 26.9932739,16.0196329 L25.5872357,16.0196329 C25.5872357,18.8347975 24.3461274,21.4933165 22.1822803,23.314443 L23.0908662,24.3806076 Z M15.9712739,26.9715949 C17.7333758,26.9715949 19.4865096,26.548443 21.0401019,25.7473924 L20.3928535,24.5071772 C19.0186242,25.2154937 17.531172,25.5748734 15.9712739,25.5748734 C13.740586,25.5748734 11.5667898,24.7988861 9.85050955,23.3896329 L8.95467516,24.4663797 C10.9224841,26.0818481 13.4142293,26.9715949 15.9712739,26.9715949 Z M25.3505605,13.4253038 L26.4792866,13.1141013 C26.0652102,11.6313291 25.3502803,10.2772152 24.3543949,9.08921519 L23.4540764,9.83443038 C24.3430446,10.8947468 24.9810446,12.1027975 25.3505605,13.4253038 Z M6.86047134,21.976481 L7.83870064,21.335557 C6.79152866,19.7571266 6.23802548,17.9185949 6.23802548,16.0196329 C6.23802548,13.3755949 7.29164331,10.907 9.20438217,9.06818987 L8.3895414,8.23121519 C6.24671338,10.2916962 5.06656051,13.0575696 5.06656051,16.0196329 C5.06656051,18.1473671 5.68676433,20.2071519 6.86047134,21.976481 Z"/>
    <path d="M25.3505605,13.4253038 C24.9810446,12.1027975 24.3430446,10.8947468 23.4540764,9.83443038 L24.3543949,9.08921519 C25.3502803,10.2772152 26.0652102,11.6313291 26.4792866,13.1141013 L25.3505605,13.4253038 Z M6.86047134,21.976481 C5.68676433,20.2071519 5.06656051,18.1473671 5.06656051,16.0196329 C5.06656051,13.0575696 6.24671338,10.2916962 8.3895414,8.23121519 L9.20438217,9.06818987 C7.29164331,10.907 6.23802548,13.3755949 6.23802548,16.0196329 C6.23802548,17.9185949 6.79152866,19.7571266 7.83870064,21.335557 L6.86047134,21.976481 Z" opacity=".5"/>
  </g>
</svg>

<svg xmlns="http://www.w3.org/2000/svg" width="32" height="32"><g fill="#FFF"><path d="M16 32C7.163 32 0 24.837 0 16S7.163 0 16 0s16 7.163 16 16-7.163 16-16 16zm-.029-8.85c3.957 0 7.176-3.199 7.176-7.13 0-3.932-3.219-7.13-7.176-7.13-3.957 0-7.176 3.198-7.176 7.13 0 3.931 3.22 7.13 7.176 7.13zm0-12.864c3.182 0 5.77 2.572 5.77 5.734 0 3.161-2.588 5.733-5.77 5.733-3.181 0-5.77-2.572-5.77-5.733 0-3.162 2.589-5.734 5.77-5.734zm5.025-2.415l.736-1.19a11.053 11.053 0 0 0-5.76-1.614c-1.874 0-3.724.476-5.35 1.375l.683 1.221a9.67 9.67 0 0 1 4.666-1.198c1.78 0 3.517.486 5.025 1.406zm2.095 16.51a10.911 10.911 0 0 0 3.902-8.361h-1.406a9.519 9.519 0 0 1-3.405 7.294l.909 1.067zm-7.12 2.59c1.762 0 3.516-.423 5.07-1.224l-.648-1.24a9.558 9.558 0 0 1-4.422 1.068 9.667 9.667 0 0 1-6.12-2.185l-.896 1.076a11.083 11.083 0 0 0 7.016 2.506zm9.38-13.546l1.128-.31a10.71 10.71 0 0 0-2.125-4.026l-.9.745a9.558 9.558 0 0 1 1.897 3.591zM6.86 21.976l.978-.64a9.587 9.587 0 0 1-1.601-5.316 9.564 9.564 0 0 1 2.966-6.952l-.814-.837a10.717 10.717 0 0 0-3.323 7.789c0 2.127.62 4.187 1.793 5.956z"/><path d="M25.35 13.425a9.558 9.558 0 0 0-1.896-3.59l.9-.746a10.71 10.71 0 0 1 2.125 4.025l-1.128.311zM6.86 21.976a10.742 10.742 0 0 1-1.793-5.956c0-2.962 1.18-5.728 3.323-7.789l.814.837a9.564 9.564 0 0 0-2.966 6.952c0 1.899.554 3.737 1.6 5.316l-.978.64z" opacity=".5"/></g></svg>
